X: 125
T:Louison Louisette
M:3/8
L:1/16
R:Bourree
Z:Steve Mansfield
K:G
A2 AGAB | G2E2 FG | A2 AGAB | cdcBAG | A2 AGAB |
G2E2 FG | A2 GFED | G6 :: A2 GFED | A2 GFED | AGABAF |
G2DEFG | A2 GFED | A2 GFED | AGABAF | G6 :|

